!!!OTL: Symphony No. 5 in E minor, Movement 2
!!!COM: Tchaikovsky
!!!OMD: Andante cantibile, con alcuna licenza
**kern	**dynam
*staff7	*staff7
*Ioboe	*Ioboe
*I"Oboe 2	*I"Oboe 2
*clefG2	*clefG2
*k[f#c#]	*k[f#c#]
*M12/8	*M12/8
=1-	=1-
1.r	.
=2	=2
1.r	.
=3	=3
1.r	.
=4	=4
1.r	.
=5	=5
1.r	.
=6	=6
1.r	.
=7	=7
1.r	.
=8	=8
1.r	.
=9	=9
1.r	.
=10	=10
1.r	.
=11	=11
1.r	.
=12	=12
1.r	.
=13	=13
!!LO:TX:i:Z=10:t=animando
1.r	.
=14	=14
1.r	.
=15	=15
!!LO:TX:i:Z=10:t=riten.
1.r	.
=16	=16
!!LO:REH:t=A
!!LO:TX:i:Z=10:t=sostenuto
1.r	.
=17	=17
1.r	.
=18	=18
1.r	.
=19	=19
1.r	.
=20	=20
1.r	.
=21	=21
1.r	.
=22	=22
1.r	.
=23	=23
1.r	.
=24	=24
!!LO:TX:Z=10:b:t=Con moto
1.r	.
!!LO:MREST:break
=25	=25
1.r	.
=26	=26
1.r	.
=27	=27
1.r	.
=28	=28
!!LO:TX:i:Z=10:t=sostenuto
1.r	.
=29	=29
1.r	.
=30	=30
1.r	.
=31	=31
1.r	.
=32	=32
1.r	.
=33	=33
!!LO:TX:b:Z=10:t=Tempo I
1.r	.
=34	=34
1.r	.
=35	=35
!!LO:TX:i:Z=10:t=animando
1.r	.
=36	=36
!	!
1.r	.
!!LO:TX:i:Z=10:t=riten.
=37	=37
!!LO:TX:i:Z=10:t=sostenuto
1.r	.
=38	=38
1.r	.
=39	=39
!!LO:TX:Z=10:b:t=Poco pi&ugrave; animato
1.r	.
=40	=40
1.r	.
=41	=41
1.r	.
=42	=42
1.r	.
=43	=43
!!LO:TX:Z=10:i:t=riten.
1.r	.
=44	=44
!!LO:TX:Z=10:b:t=Tempo I
1.r	.
=45	=45
!!LO:REH:t=B
1.r	.
=46	=46
!!LO:TX:i:Z=10:t=animando
1.r	.
=47	=47
1.r	.
=48	=48
!!LO:TX:i:Z=10:t=riten.
1.r	.
=49	=49
1.r	.
=50	=50
!!LO:TX:i:Z=10:t=animando
1.r	.
=51	=51
2.r	.
8dd\	mf
8r	.
8r	.
8r	.
8b\L	.
8b\J	.
=52	=52
!!LO:REH:t=C
!!LO:TX:b:Z=10:t=Poco pi&ugrave; mosso
!LO:TX:i:Y=20:t=cresc. poco a poco	!
8b\L	.
8b\	.
8b\J	.
8b\L	.
8b\	.
8b\J	.
8b\L	.
8b\	.
8b\J	.
8b\L	.
8b\	.
8b\J	.
=53	=53
8cc#\L	.
8cc#\	.
8cc#\J	.
8cc#\L	.
8cc#\	.
8cc#\J	.
8dd\L	.
8dd\	.
8dd\J	.
8dd\L	.
8dd\	.
8dd\J	.
=54	=54
8dd#\L	.
8dd#\	.
8dd#\J	.
8dd#\L	.
8dd#\	.
8dd#\J	.
8ee\L	.
8ee\	.
8ee\J	.
8ee\L	.
8ee\	.
8ee\J	.
=55	=55
8ee\L	.
8ee\	.
8ee\J	.
8ee\L	.
8ee\	.
8ee\J	.
8gg\L	.
8gg\	.
8gg\J	.
8gg\L	.
8gg\	.
8gg\J	.
=56	=56
!!LO:TX:b:Z=10:t=Tempo I
8ff#\L	fff
8ff#\	.
8ff#\J	.
8b\L	.
8b\	.
8dd\J	.
8cc#\L	>
8cc#\	)
8cc#\J	)
8dd\L	)
8dd\	)
8ee\J	]
=57	=57
!!LO:TX:Z=10:i:t=animando
8dd\L	ff
8dd\	.
8dd\J	.
8g/L	.
8g/	.
8b/J	.
8a#/L	.
8a#/	.
8a#/J	.
8b\L	.
8b\	.
8cc#\J	.
=58	=58
8b\L	f
8b\	.
8b\J	.
4r	.
8r	.
2.r	.
!!LO:TX:Z=10:i:t=riten.
=59	=59
!!LO:TX:Z=10:b:t=Pi&ugrave; animato
1.r	.
=60	=60
!!LO:TX:Z=10:i:t=riten.
1.r	.
!!LO:MREST:break
=61	=61
!!LO:TX:Z=10:b:t=Poco meno
1.r	.
=62	=62
1.r	.
=63	=63
1.r	.
=64	=64
1.r	.
=65	=65
1.r	.
=66||	=66||
*M4/4	*M4/4
*met(c)	*met(c)
!!LO:TX:Z=10:b:t=Moderato con anima
1r	.
=67	=67
1r	.
=68	=68
1r	.
=69	=69
1r	.
=70	=70
1r	.
=71	=71
1r	.
=72	=72
1r	.
=73	=73
1r	.
=74	=74
1r	.
!!LO:MREST:break
=75	=75
!!LO:REH:t=D
1r	.
=76	=76
1r	.
=77	=77
1r	.
=78	=78
4.dd#\	mf
(8ee\	<
8gg#\L	[
8ff#\)	>
8ee~\	)
8dd#~\J	]
=79	=79
1r	.
=80	=80
1r	.
=81	=81
1r	.
=82	=82
4.ffn\	mf
(8gg-\	<
8bb-\L	[
8aa-\)	>
8gg-~\	)
8ff~\J	]
=83	=83
!!LO:REH:t=E
1r	.
=84	=84
1r	.
=85	=85
1r	.
=86	=86
1r	.
=87	=87
1r	.
=88	=88
4.b-\	mf
(8cc-\	<
8ee-\L	[
8dd-\)	>
8cc-~\	)
8b-~\J	]
=89	=89
8f#X/L	f
8f#/	.
8f#/	.
8f#/J	.
8f#/L	.
8f#/	.
8f#/	.
8f#/J	.
=90	=90
4.d#/	<
(8e/	(
8g#/L	[
8f#/)	>
8e~/	)
8d#~/J	]
=91	=91
!!LO:REH:t=F
2d#/	mf <
(8dd#\L	[
8ee\)	>
8b#~\	)
8cc#~\J	]
=92	=92
(2c#^/	.
2B#/)	< [
=93	=93
2c#^/	f
(4B#/	.
8d#/)	.
8r	.
=94	=94
2c#^/	.
(4B#/	.
8d#/)	.
8r	.
=95	=95
4.g#/	f
!	!
(8d#/	.
8f#/L	.
8e/	.
8d#/	.
8c#/J)	.
=96	=96
!!LO:TX:i:Z=10:t=stringendo
(8b/L	.
8a/	.
8g#/	.
8f#/J)	.
(8ee\L	.
8dd#\	.
8cc#\	.
8b#\J)	.
=97	=97
(8aa\L	fff
8gg#\	.
8ff#\	.
8ee\J)	.
(8dd#\L	.
8cc#\	.
8bn\	.
8a\J)	.
=98	=98
(8g#/L	.
8f#/	.
8e/	.
8d#/J)	.
(8c#/L	.
8d#/	.
8c#/	.
8B#/J)	.
=99	=99
!!LO:TX:b:Z=10:t=Tempo precedente
8c#/	.
8r	.
8r	.
16a/LL	fff
16a/JJ	.
4.b\	.
16a/LL	.
16g#/JJ	.
=100	=100
8a/L	.
8a/J	.
4r	.
2r	.
=101	=101
4.a/	.
16a/LL	.
16a/JJ	.
4.b\	.
16a/LL	.
16g#/JJ	.
=102	=102
8a/L	.
8a/J	.
4r	.
4r	.
4b\	.
=103	=103
4a/	.
4gn/	.
4e/	.
4e/	.
=104	=104
8e/L	.
8e/J	.
4r	.
4r	.
4b\	.
=105	=105
4a/	.
4g/	.
4e/	.
4e/	.
=106	=106
8e/L	.
8e/J	.
4r	.
4r	.
8e/	.
8r	.
=107	=107
4r	.
8e/	.
8r	.
4r	.
8e/	.
8r;	.
=108||	=108||
*M12/8	*M12/8
*rscale:1	*
!!LO:TX:b:Z=10:t=Tempo I
1r	.
=109	=109
1r	.
=110	=110
1r	.
=111	=111
1r	.
=112	=112
1r	.
=113	=113
1r	.
=114	=114
1r	.
=115	=115
1r	.
=116	=116
!!LO:REH:t=G
!!LO:TX:i:Z=10:t=animando
1r	.
=117	=117
1r	.
=118	=118
1r	.
!!LO:TX:Z=10:i:t=riten.
*rscale:1	*
=119	=119
*	*
!!LO:TZ:Z=10:i:t=sostenuto
4r	.
8r	.
[4.f#/	f
4.f#/]	> ]
4r	.
8r	.
=120	=120
*M4/4	*M4/4
*met(c)	*met(c)
(16B/LL	mf
16c#/)	.
16d#~/	<
16e~/JJ	(
16f#~/LL	(
16g~/	(
16g#~/	(
16a~/JJ	[
(16a/LL	.
16gn/	.
16f#/	.
16a/JJ	.
8g/)	.
16r	.
(16b\	mf
=121	=121
16a/LL	.
16B/)	.
16c#~/	<
16dn~/JJ	(
16e~/LL	(
16fn~/	(
16f#~/	(
16g~/JJ	[
(16g/LL	.
16f#/	.
16e#/	.
16g/JJ	.
8f#/)	.
8r	.
=122	=122
!!LO:TX:i:Z=10:t=animando
16r	.
(16g#/LL	f
16a/	.
16g#/JJ)	.
16r	.
(16a/LL	.
16b/	.
16a/JJ)	.
16r	.
(16b\LL	.
16cc#\	.
16b\JJ)	.
16r	.
(16cc#\LL	.
16dd\	.
16cc#\JJ)	.
=123	=123
!!LO:TX:i:Z=10:t=sostenuto
16r	.
(16dd\LL	.
16ee\	.
[16dd\JJ	.
16dd\LL])	.
16cc#\	.
16b\	>
16b-\JJ	)
(16a/LL	)
16g/)	)
16f#/	)
16e/JJ	)
16d/	]
16r	.
8r	.
=124	=124
!!LO:REH:t=H
(16B/LL	mf
16c#/)	<
16dn~/	(
16e~/JJ	(
16f#~/LL	(
16g~/	(
16g#~/	(
16a~/JJ	[
(16a/LL	.
16gn/	.
16f#/	.
16a/JJ	.
8g/)	.
16r	.
(16b\	mf
=125	=125
16a/LL	.
16B/)	.
16cn~/	<
16d~/JJ	(
16e~/LL	(
16fn~/	(
16f#~/	(
16g~/JJ	[
(16g/LL	.
16f#/	.
16e#/	.
16g/JJ	.
8f#/)	.
8r	.
=126	=126
!!LO:TX:i:Z=20:t=animando
16r	.
(16g#/LL	mf
16a/	.
16g#/JJ)	.
16r	.
!	!
(16a/LL	.
16b/	.
16a/JJ)	.
16r	.
(16b\LL	.
16cc#\	.
16b\JJ)	.
16r	.
(16cc#\LL	.
16dd\	.
16cc#\JJ)	.
=127	=127
16r	.
(16dd\LL	f
16ee\	.
16dd\JJ)	.
16r	.
(16dd\LL	.
16ee\	.
16dd\JJ)	.
16r	.
!!LO:TX:i:Z=10:t=riten.
(16d/LL	.
16B/	.
16c#/JJ)	.
!	!
(12d/L	f
12c#/)	.
!	!
12B~/J	.
=128||	=128||
!!LO:TX:Z=20:b:t=Pi&ugrave; mosso
*M12/8	*M12/8
(4.d^/	.
2.c#/)	.
(8a/L	<
8B/)	(
8c#~/J	[
=129	=129
(4.e/	> ]
2.d/)	<
8d~/L	(
8e~/	(
8f#~/J	[
=130	=130
4.g/	f
!LO:TX:i:Y=20:t=cresc.	!
4g/	.
8g/	.
!LO:TX:i:Y=20:t=dim.	!
[4.g/	.
4g/]	.
8g/	.
=131	=131
(8.g/L	.
8.f#/J)	.
8.b~/L	ff
8.a~/J	.
!	!
(8g/L	.
8f#/)	.
8e/J	.
8d~/L	.
8c#~/	.
8B~/J	.
=132	=132
(4.d^/	f
2.c#/)	.
(8a/L	<
8B/)	(
8c#~/J	[
=133	=133
(4.e/	>
2.d/)	]
8d~/L	<
8e~/	(
8f#~/J	[
=134	=134
!!LO:TX:b:Z=10:t=Un poco pi&ugrave; animato
4.ff#\	f
4.ff#\	.
4.ff#\	.
8d~/L	.
8e~/	.
8f#~/J	.
=135	=135
4.ff#\	.
4.ff#\	.
4.ff#\	.
8g#~/L	ff
8a~/	.
8b~/J	.
=136	=136
4.dd\	.
4.dd\	.
4.dd\	.
8g#~/L	.
8a~/	.
8b~/J	.
=137	=137
4.dd\	.
4.dd\	.
8dd\	.
4b\	.
4b\	.
[8b\	.
=138	=138
!!LO:REH:t=I
8b\]	.
4b\	.
4b\	.
[8b\	.
8b\]	.
4b\	.
4b\	.
[8b\	.
=139	=139
8b\]	.
4b\	.
4b\	.
[8b\	.
8b\]	.
4b\	.
4b\	.
[8b\	.
=140	=140
8b\]	.
!!LO:TX:i:Z=10:t=riten.
4gg\	.
4ee\	.
[8dd\	.
8dd\]	.
4cc#\	.
4b\	.
(8an/	.
=141	=141
8a#\L)	.
8b\	.
8cc#\J	.
8d/L	.
8d#/	.
8e/J	.
8f#/L	.
8g/	.
8an/J	.
8a#\L	.
8b\	.
8cc#\J	.
=142	=142
!!LO:TX:b:Z=40:t=Andante mosso
*M4/4	*M4/4
*met(c)	*met(c)
16ff#\LL	ff
16a\	.
16a\	.
16a\JJ	.
!	!
16a/LL	.
16a/	.
16a/	.
16a/JJ	.
16g/LL	.
16g/	.
16g/	.
16g/JJ	.
16f#/LL	.
16f#/	.
16e/	.
16e/JJ	.
*	*
=143	=143
16f#/LL	.
16f#/	.
16f#/	.
16f#/JJ	.
16f#/LL	.
16f#/	.
16f#/	.
16f#/JJ	.
!LO:TX:i:Y=20:t=cresc.	!
16f#/LL	.
16f#/	.
16f#/	.
16f#/JJ	.
16f#/LL	.
16f#/	.
16f#/	.
16f#/JJ	.
!	!
=144	=144
!!LO:TX:i:Z=10:t=animando
16dd\LL	.
16dd\	.
16b\	.
16b\JJ	.
16b\LL	.
16b\	.
16dd\	.
16dd\JJ	ff
16b\LL	.
16b\	.
16dd\	.
16dd\JJ	.
16f#/LL	.
16f#/	.
16f#/	.
16f#/JJ	.
=145	=145
16b\LL	.
16b\	.
16b\	.
16b\JJ	.
16b\LL	.
16b\	.
16b\	.
16b\JJ	.
16b\LL	.
16b\	.
16b\	.
16b\JJ	.
16ee\LL	.
16ee\	.
16ee\	.
16ee\JJ	.
!!LO:TX:i:Z=10:t=riten.
=146	=146
16a/LL	ff
16a/	.
16a/	.
16a/JJ	.
16a/LL	.
16a/	.
16a/	.
16a/JJ	.
16g/LL	.
16g/	.
16g/	.
16g/JJ	.
16f#/LL	.
16f#/	.
16e/	.
16e/JJ	.
=147	=147
!!LO:TX:i:Z=20:t=animando un poco
16f#/LL	.
16f#/	.
16f#/	.
16f#/JJ	.
16f#/LL	.
16f#/	.
16f#/	.
16f#/JJ	.
!LO:TX:i:Y=20:t=cresc.	!
16f#/LL	.
16f#/	.
16f#/	.
16f#/JJ	.
16f#/LL	.
16f#/	.
16f#/	.
16f#/JJ	.
!	!
=148	=148
*	*
!	!
16dd\LL	.
16dd\	.
16b\	.
16b\JJ	.
16b\LL	.
16b\	.
16dd\	.
16dd\JJ	.
16b\LL	.
16b\	.
16b\	.
16b\JJ	.
16b\LL	.
16b\	.
16b\	.
16b\JJ	.
*	*
=149	=149
*M12/8	*M12/8
(4.f#/	fff
4g/)	.
8g/	.
(4.g/	.
4g#/)	.
8g#/	.
=150	=150
(8.g#/L	.
8.a/J)	.
8.a/L	.
8.a/J	.
(8.a/L	.
8.a#/J)	.
8.a#/L	.
8.a#/J	.
=151	=151
!!LO:REH:t=K
!LO:TX:i:Y=20:t=cresc.	!
(4.a#/	.
4b\)	.
8b\	.
(4.b\	.
4ccn\)	.
8cc\	.
=152	=152
(8.ccn\L	.
8.cc#\J)	.
8.cc#\L	.
8.cc#\J	.
(8.cc#\L	.
8.dd\J)	.
8.dd\L	.
8.dd\J	.
=153	=153
!!LO:TX:Z=10:b:t=Molto pi&ugrave; andante
*M4/4	*M4/4
*met(c)	*met(c)
4dd\	ffff
(8f#/L	.
8b/J)	.
2a/	> ]
=154	=154
4b\	ff
!!LO:TX:i:Z=10:t=animando
(8d/L	.
8g/J)	.
2f#/	> ]
=155	=155
*	*
*	*
16g/LL	f
16b/	.
16b/	.
16b/JJ	.
!	!
16e/LL	.
16e/	.
16e/	.
16e/JJ	.
!!LO:TX:i:Z=10:t=riten.
4e/	>
4e#/	]
*	*
=156	=156
!!LO:TX:b:Z=10:t=Pi&ugrave; animato
4f#/	mf
4r	.
2r	.
=157	=157
!!LO:TX:i:Z=10:t=riten.
1r	.
*	*
=158||	=158||
*	*
*	*
!	!
!!LO:TX:b:Z=10:t=Allegro non troppo
(8e/L	fff
8d/J)	.
4r	.
2r	.
=159	=159
4r	.
12B/L	.
12B/	.
12B/J	.
4B/	.
4B/	.
=160	=160
1r	.
=161	=161
4r	.
12d/L	.
12d/	.
12d/J	.
4d/	.
4d/	.
=162	=162
4r	.
12fn/L	.
12f/	.
12f/J	.
4f/	.
8d/	.
8r	.
=163	=163
4r	.
12fn/L	.
12f/	.
12f/J	.
4f/	.
(8dd\L	.
8ffn\J)	.
=164	=164
12ee\L	fff
12ee\	.
12ee\J	.
12ee\L	.
12ee\	.
12ee\J	.
8ee^\L	.
8ee^\J	.
8ee^\L	.
8ee^\J	.
=165	=165
8b-^\L	.
8b-^\J	.
4r	.
2r	.
!!LO:TX:i:Z=10:t=riten.
=166	=166
1r	.
=167	=167
1r	.
=168	=168
1r	.
=169	=169
1r	.
=170||	=170||
*M12/8	*
!!LO:TX:b:Z=20:t=Tempo I
1.r	.
=171	=171
1.r	.
=172	=172
1.r	.
=173	=173
1.r	.
=174	=174
1.r	.
=175	=175
1.r	.
=176	=176
1.r	.
=177	=177
1.r	.
=178	=178
1.r	.
=179	=179
1.r	.
=180	=180
1.r	.
=181	=181
1.r	.
=182	=182
*	*
*	*
1r	.
!	!
!!LO:TX:i:Z=10:t=riten. molto
=183	=183
*	*
1.r	.
=184	=184
1.r;	.
==	==
*-	*-
!!muse2ps: =z21
